gtk-icons/Papirus-GTK/48x48/apps/builder.svg

<?xml version="1.0" encoding="UTF-8" standalone="no"?>
<svg
   xmlns:dc="http://purl.org/dc/elements/1.1/"
   xmlns:cc="http://creativecommons.org/ns#"
   xmlns:rdf="http://www.w3.org/1999/02/22-rdf-syntax-ns#"
   xmlns:svg="http://www.w3.org/2000/svg"
   xmlns="http://www.w3.org/2000/svg"
   xmlns:sodipodi="http://sodipodi.sourceforge.net/DTD/sodipodi-0.dtd"
   xmlns:inkscape="http://www.inkscape.org/namespaces/inkscape"
   viewBox="0 0 48 48"
   id="svg2"
   version="1.1"
   inkscape:version="0.91 r"
   sodipodi:docname="builder.svg">
  <metadata
     id="metadata85">
    <rdf:RDF>
      <cc:Work
         rdf:about="">
        <dc:format>image/svg+xml</dc:format>
        <dc:type
           rdf:resource="http://purl.org/dc/dcmitype/StillImage" />
        <dc:title></dc:title>
      </cc:Work>
    </rdf:RDF>
  </metadata>
  <sodipodi:namedview
     pagecolor="#bebebe"
     bordercolor="#666666"
     borderopacity="1"
     objecttolerance="10"
     gridtolerance="10"
     guidetolerance="10"
     inkscape:pageopacity="0"
     inkscape:pageshadow="2"
     inkscape:window-width="1600"
     inkscape:window-height="846"
     id="namedview83"
     showgrid="false"
     inkscape:zoom="1"
     inkscape:cx="39.840046"
     inkscape:cy="26.844501"
     inkscape:window-x="0"
     inkscape:window-y="26"
     inkscape:window-maximized="1"
     inkscape:current-layer="svg2" />
  <defs
     id="defs4" />
  <path
     style="fill:#4d4d4d;fill-opacity:1;stroke:none"
     d="M 36 26 L 34 30 L 37 33 L 36 30 L 37.167969 28 L 38 28 L 38 30 L 38.984375 33 L 40 30 L 40 28 L 40.814453 28 L 41.982422 30 L 40.982422 33 L 43.982422 30 L 42 26.035156 L 42 26 L 41.982422 26 L 40 26 L 38 26 L 36 26 z "
     id="path4397" />
  <path
     id="path65"
     style="fill:#ff4b36;fill-opacity:1;fill-rule:nonzero;stroke:none"
     d="m 35,23 8,0 0,3 -8,0 z"
     inkscape:connector-curvature="0" />
  <path
     style="opacity:1;fill:#4d4d4d;fill-opacity:1;stroke:none;stroke-width:4;stroke-linecap:round;stroke-linejoin:round;stroke-miterlimit:4;stroke-dasharray:none;stroke-opacity:1"
     d="m 10,38 14,0 3,6 -20,0 z"
     id="rect4213"
     inkscape:connector-curvature="0"
     sodipodi:nodetypes="ccccc" />
  <rect
     y="-20"
     x="18"
     height="6"
     width="20"
     id="rect4257"
     style="opacity:1;fill:#ffcf36;fill-opacity:1;stroke:none;stroke-width:4;stroke-linecap:round;stroke-linejoin:round;stroke-miterlimit:4;stroke-dasharray:none;stroke-opacity:1"
     transform="matrix(0,1,-1,0,0,0)" />
  <path
     style="opacity:0.2;fill:#ffffff;fill-opacity:1;stroke:none;stroke-width:4;stroke-linecap:round;stroke-linejoin:round;stroke-miterlimit:4;stroke-dasharray:none;stroke-opacity:1"
     d="M 14 18 L 14 19 L 20 19 L 20 18 L 14 18 z "
     id="rect4437" />
  <rect
     transform="matrix(-0.5,0.8660254,-0.8660254,-0.5,0,0)"
     style="opacity:1;fill:#ffa036;fill-opacity:1;stroke:none;stroke-width:4;stroke-linecap:round;stroke-linejoin:round;stroke-miterlimit:4;stroke-dasharray:none;stroke-opacity:1"
     id="rect4328"
     width="20"
     height="6"
     x="-7.447444"
     y="-28.258335" />
  <rect
     style="opacity:1;fill:#4d4d4d;fill-opacity:1;stroke:none;stroke-width:4;stroke-linecap:round;stroke-linejoin:round;stroke-miterlimit:4;stroke-dasharray:none;stroke-opacity:1"
     id="rect4342"
     width="4"
     height="10"
     x="37"
     y="12.999999" />
  <path
     style="opacity:0.2;fill:#ffffff;fill-opacity:1;stroke:none;stroke-width:4;stroke-linecap:round;stroke-linejoin:round;stroke-miterlimit:4;stroke-dasharray:none;stroke-opacity:1"
     d="M 23 4.6796875 L 13 22 L 13.433594 22.25 L 23 5.6796875 L 27.761719 8.4296875 L 28.195312 7.6796875 L 23 4.6796875 z "
     id="rect4447" />
  <path
     style="opacity:0.3;fill:#000000;fill-opacity:1;stroke:none;stroke-width:4;stroke-linecap:round;stroke-linejoin:round;stroke-miterlimit:4;stroke-dasharray:none;stroke-opacity:1"
     d="M 27.761719 7.4296875 L 18.195312 24 L 13.433594 21.25 L 13 22 L 18.195312 25 L 28.195312 7.6796875 L 27.761719 7.4296875 z "
     id="rect4452" />
  <rect
     y="-5.9855371"
     x="-43.344627"
     height="6"
     width="20"
     id="rect4330"
     style="opacity:1;fill:#ff6f36;fill-opacity:1;stroke:none;stroke-width:4;stroke-linecap:round;stroke-linejoin:round;stroke-miterlimit:4;stroke-dasharray:none;stroke-opacity:1"
     transform="matrix(-0.96592583,-0.25881905,0.25881905,-0.96592583,0,0)" />
  <circle
     style="opacity:1;fill:#4d4d4d;fill-opacity:1;stroke:none;stroke-width:4;stroke-linecap:round;stroke-linejoin:round;stroke-miterlimit:4;stroke-dasharray:none;stroke-opacity:1"
     id="path4399"
     cx="17"
     cy="21"
     r="1" />
  <circle
     r="1"
     cy="9"
     cx="24"
     id="circle4401"
     style="opacity:1;fill:#4d4d4d;fill-opacity:1;stroke:none;stroke-width:4;stroke-linecap:round;stroke-linejoin:round;stroke-miterlimit:4;stroke-dasharray:none;stroke-opacity:1" />
  <circle
     style="opacity:1;fill:#4d4d4d;fill-opacity:1;stroke:none;stroke-width:4;stroke-linecap:round;stroke-linejoin:round;stroke-miterlimit:4;stroke-dasharray:none;stroke-opacity:1"
     id="circle4403"
     cx="39"
     cy="13"
     r="1" />
  <path
     style="opacity:0.2;fill:#ffffff;fill-opacity:1;stroke:none;stroke-width:4;stroke-linecap:round;stroke-linejoin:round;stroke-miterlimit:4;stroke-dasharray:none;stroke-opacity:1"
     d="M 10 38 L 7 44 L 7.5 44 L 10 39 L 24 39 L 26.5 44 L 27 44 L 24 38 L 10 38 z "
     id="path4427" />
  <path
     style="opacity:0.3;fill:#000000;fill-opacity:1;stroke:none;stroke-width:4;stroke-linecap:round;stroke-linejoin:round;stroke-miterlimit:4;stroke-dasharray:none;stroke-opacity:1"
     d="M 7.5 43 L 7 44 L 27 44 L 26.5 43 L 7.5 43 z "
     id="path4432" />
  <path
     style="opacity:0.3;fill:#000000;fill-opacity:1;stroke:none;stroke-width:4;stroke-linecap:round;stroke-linejoin:round;stroke-miterlimit:4;stroke-dasharray:none;stroke-opacity:1"
     d="M 14 37 L 14 38 L 20 38 L 20 37 L 14 37 z "
     id="rect4442" />
  <path
     style="opacity:0.2;fill:#ffffff;fill-opacity:1;stroke:none;stroke-width:4;stroke-linecap:round;stroke-linejoin:round;stroke-miterlimit:4;stroke-dasharray:none;stroke-opacity:1"
     d="M 22.552734 6.0273438 L 21 11.824219 L 21.25 11.890625 L 22.552734 7.0273438 L 41.621094 12.138672 L 41.871094 11.205078 L 22.552734 6.0273438 z "
     id="rect4457" />
  <path
     style="opacity:0.3;fill:#000000;fill-opacity:1;stroke:none;stroke-width:4;stroke-linecap:round;stroke-linejoin:round;stroke-miterlimit:4;stroke-dasharray:none;stroke-opacity:1"
     d="M 21.25 10.890625 L 21 11.824219 L 40.318359 17 L 41.871094 11.205078 L 41.621094 11.138672 L 40.318359 16 L 21.25 10.890625 z "
     id="rect4462" />
  <path
     style="opacity:0.3;fill:#000000;fill-opacity:1;stroke:none;stroke-width:4;stroke-linecap:round;stroke-linejoin:round;stroke-miterlimit:4;stroke-dasharray:none;stroke-opacity:1"
     d="M 37 22 L 37 23 L 41 23 L 41 22 L 37 22 z "
     id="rect4467" />
  <path
     style="fill:#ffffff;fill-opacity:1;fill-rule:nonzero;stroke:none;opacity:0.2"
     d="M 35 23 L 35 24 L 43 24 L 43 23 L 35 23 z "
     id="path4472" />
  <path
     id="path4477"
     d="m 35,25 0,1 8,0 0,-1 -8,0 z"
     style="opacity:0.3;fill:#000000;fill-opacity:1;fill-rule:nonzero;stroke:none"
     inkscape:connector-curvature="0" />
  <path
     style="fill:#ffffff;fill-opacity:1;stroke:none;opacity:0.2"
     d="M 36 26 L 34 30 L 34.333984 30.333984 L 36 27 L 38 27 L 40 27 L 41.982422 27 L 42 27 L 42 27.035156 L 43.648438 30.333984 L 43.982422 30 L 42 26.035156 L 42 26 L 41.982422 26 L 40 26 L 38 26 L 36 26 z M 36.212891 30.636719 L 36 31 L 36.5 32.5 L 37 33 L 36.212891 30.636719 z M 41.769531 30.636719 L 40.982422 33 L 41.482422 32.5 L 41.982422 31 L 41.769531 30.636719 z "
     id="path4480" />
  <path
     style="fill:#000000;fill-opacity:1;stroke:none;opacity:0.3"
     d="M 37.167969 27 L 36 29 L 36.212891 29.636719 L 37.167969 28 L 38 28 L 38 27 L 37.167969 27 z M 40 27 L 40 28 L 40.814453 28 L 41.769531 29.636719 L 41.982422 29 L 40.814453 27 L 40 27 z M 38 29 L 38 30 L 38.984375 33 L 40 30 L 40 29 L 38.984375 32 L 38 29 z M 34.333984 29.333984 L 34 30 L 37 33 L 36.5 31.5 L 34.333984 29.333984 z M 43.648438 29.333984 L 41.482422 31.5 L 40.982422 33 L 43.982422 30 L 43.648438 29.333984 z "
     id="path4485" />
</svg>

<?xml version="1.0" encoding="UTF-8" standalone="no"?>
<svg id="svg2" xmlns:rdf="http://www.w3.org/1999/02/22-rdf-syntax-ns#" xmlns="http://www.w3.org/2000/svg" version="1.1" xmlns:cc="http://creativecommons.org/ns#" xmlns:dc="http://purl.org/dc/elements/1.1/" viewBox="0 0 48 48">
 <metadata id="metadata85">
  <rdf:RDF>
   <cc:Work rdf:about="">
    <dc:format>image/svg+xml</dc:format>
    <dc:type rdf:resource="http://purl.org/dc/dcmitype/StillImage"/>
    <dc:title/>
   </cc:Work>
  </rdf:RDF>
 </metadata>
 <path id="path4397" fill="#4d4d4d" d="m36 26l-2 4 3 3-1-3 1.168-2h0.832v2l0.984 3 1.016-3v-2h0.814l1.168 2-1 3 3-3-1.982-3.965v-0.035h-0.018-1.982-2-2z"/>
 <path id="path65" d="m35 23h8v3h-8z" fill="#ff4b36"/>
 <path id="rect4213" d="m10 38h14l3 6h-20z" fill="#4d4d4d"/>
 <rect id="rect4257" transform="rotate(90)" height="6" width="20" y="-20" x="18" fill="#ffcf36"/>
 <path id="rect4437" opacity=".2" d="m14 18v1h6v-1h-6z" fill="#fff"/>
 <rect id="rect4328" transform="rotate(120)" height="6" width="20" y="-28.258" x="-7.4474" fill="#ffa036"/>
 <rect id="rect4342" height="10" width="4" y="13" x="37" fill="#4d4d4d"/>
 <path id="rect4447" opacity=".2" d="m23 4.6797l-10 17.32 0.434 0.25 9.566-16.57 4.762 2.7497 0.433-0.75-5.195-3z" fill="#fff"/>
 <path id="rect4452" opacity=".3" d="m27.762 7.4297l-9.567 16.57-4.761-2.75-0.434 0.75 5.195 3 10-17.32-0.433-0.2503z"/>
 <rect id="rect4330" transform="rotate(195)" height="6" width="20" y="-5.9855" x="-43.345" fill="#ff6f36"/>
 <circle id="path4399" cx="17" cy="21" r="1" fill="#4d4d4d"/>
 <circle id="circle4401" cy="9" cx="24" r="1" fill="#4d4d4d"/>
 <circle id="circle4403" cx="39" cy="13" r="1" fill="#4d4d4d"/>
 <path id="path4427" opacity=".2" d="m10 38l-3 6h0.5l2.5-5h14l2.5 5h0.5l-3-6h-14z" fill="#fff"/>
 <path id="path4432" opacity=".3" d="m7.5 43l-0.5 1h20l-0.5-1h-19z"/>
 <path id="rect4442" opacity=".3" d="m14 37v1h6v-1h-6z"/>
 <path id="rect4457" opacity=".2" d="m22.553 6.0273l-1.553 5.7967 0.25 0.067 1.303-4.8637 19.068 5.1117 0.25-0.934-19.318-5.1777z" fill="#fff"/>
 <path id="rect4462" opacity=".3" d="m21.25 10.891l-0.25 0.933 19.318 5.176 1.553-5.795-0.25-0.066-1.303 4.861-19.068-5.109z"/>
 <path id="rect4467" opacity=".3" d="m37 22v1h4v-1h-4z"/>
 <path id="path4472" opacity=".2" d="m35 23v1h8v-1h-8z" fill="#fff"/>
 <path id="path4477" opacity=".3" d="m35 25v1h8v-1h-8z"/>
 <path id="path4480" opacity=".2" d="m36 26l-2 4 0.334 0.334 1.666-3.334h2 2 1.982 0.018v0.035l1.648 3.299 0.334-0.334-1.982-3.965v-0.035h-0.018-1.982-2-2zm0.213 4.637l-0.213 0.363 0.5 1.5 0.5 0.5-0.787-2.363zm5.557 0l-0.788 2.363 0.5-0.5 0.5-1.5-0.212-0.363z" fill="#fff"/>
 <path id="path4485" opacity=".3" d="m37.168 27l-1.168 2 0.213 0.637 0.955-1.637h0.832v-1h-0.832zm2.832 0v1h0.814l0.956 1.637 0.212-0.637-1.168-2h-0.814zm-2 2v1l0.984 3 1.016-3v-1l-1.016 3-0.984-3zm-3.666 0.334l-0.334 0.666 3 3-0.5-1.5-2.166-2.166zm9.314 0l-2.166 2.166-0.5 1.5 3-3-0.334-0.666z"/>
</svg>
